X: 33268
T: Pur The Orangutan
R: reel
M: 4/4
K: Gmajor
DGGG EGDF|GFGA BGAB|Bc~c2 ABAG|FGAG FDEF|
GEEE EDEF|GFGA BGAB|c3B ABAG|FDEF G4||
DGGG EGDF|GFGA BGAB|Bc~c2 ABAG|FGAG FDGA|
BGGG EGDF|GFGA BGAB|c3B ABAG|FDEF G4||
GABc d2 (3ddd|dDcD B2AB|c3B ABAG|FGAG FDEF|
GABc d2 (3ddd|dged BGAB|c3B ABAG|FDEF G4||
GABc d2 (3ddd|dDcD B2AB|c3B ABAG|FGAG FDEF|
GEEE EDEF|GFGA BGAB|c3B ABAG|FDEF G4||

